FINK
CUT[IN WARSCHAU SCHWUREN TAUSEND]
REG[Europa, Mitteleuropa, Deutschland]
KEY[F0569  16 Ab 4/4]
MEL[-5-5_.-5  3__.1_-5_.-51_.3  5_3_1__0_
    3_2_1#_  2__.2_3_2_1_-6_  -5__0__0_.
    -5-5_.-5  2__.-6_-4_-6_2_3_  4_.32__0_
    2_3_4_  3__.3_3_.-3-4#_.-5#  -6__0__.
    3_2_1_  2__.-5_-5_.-5-5_.-5  3__0__.
    1_1_1_  5_4_2_-7_-5_-4_-3_-2_  -1__0__0_. //] >>
FCT[Soldaten -, Kriegs - Lied, Niederlage]
